X:35 
T:Johnny Mickey Barry's (polka)
C:file ID mally/35johnny_mb
B:Mally.HIP.037
Q:120
R:polka
L:1/8
M:2/4
K:A
c/B/|Ac EF|A>G Af|ec BA|e/f/e/c/ Bc/B/|
Ac EF|A2 a>f|ec BA/B/|cA A :|
B|ce ce|a2 a>f|ec BA|e/f/e/c/ Bc/B/|
ce ce|a2 a>f|ec BA/B/|cA A :|

